X: 4
T: Mudgee Schottische, The
Z: ceolachan
S: https://thesession.org/tunes/11332#setting26988
R: barndance
M: 4/4
L: 1/8
K: Gmaj
G>A |B2 B2 c2 c>d | e>fe>d B2 G>B | d2 d>B A2 A>B | (3cdc B>A G2 G>A |
B2 B2 c2 c>d | e>fe>d B2 G>B | d2 d>B (3cdc B>A | G6 ||
(3def |g2 G2 e2 G2 | e>fe>d B2 G>B | d2 d>B A2 A>B | (3cdc B>A G2 (3def |
g2 G2 e2 G2 | e>fe>d B2 G>B | d2 d>B (3cdc B>A | G6 |]
